!!!OTL: CHRISTINCHEN GIENG IN GARTEN
!!!ARE: Europa, Mitteleuropa, Deutschland, Hildesheim
!!!SCT: E0002D
!!!YEM: Copyright 1995, estate of Helmut Schaffrath.
**kern
*ICvox
*Ivox
*M6/8
*k[b-]
*F:
{8c
=1
4a
8a
8g
8a
8g
=2
8f
8c
4.r}
{8c
=3
4a
8a
8g
8a
8g
=4
8f
8c
4.r}
{8f
=5
4f
8f
4ff
8dd
=6
8.dd
16cc
8cc
4a}
{8a
=7
4a
8g
4cc
8b-
=8
4b-
8a
4a}
==
!!!AGN: Sage, Maerchen -, Zauber - Lied, Ballade ?
!!!ONB: ESAC (Essen Associative Code) Database: ERK1
!!!AMT: compound duple
!!!AIN: vox
!!!EED: Helmut Schaffrath
!!!EEV: 1.0
*-
